nuxtjs.org/static/img/home/discover/dx/modular.svg

<svg width="75" height="75" fill="none" xmlns="http://www.w3.org/2000/svg"><mask id="a" maskUnits="userSpaceOnUse" x="0" y="4" width="75" height="69"><path d="M1.91487 45.6651L13.497 65.8046v-.0247c1.2621 2.1807 3.0726 3.9914 5.2508 5.2516 2.1782 1.2601 4.6479 1.9257 7.1627 1.9302h23.179c2.5149-.004 4.9848-.6694 7.1631-1.9296s3.9887-3.0712 5.2505-5.2522l11.582-20.1148C74.3397 43.4796 75 41.0023 75 38.4808c0-2.5215-.6603-4.9988-1.9149-7.1842l-11.582-20.1148c-1.2631-2.18321-3.0758-3.99561-5.2569-5.25595C54.0651 4.6655 51.5922 4.00141 49.0747 4H25.9105c-2.5148.0045-4.9845.67002-7.1627 1.93019-2.1782 1.26016-3.9887 3.07091-5.2508 5.25161L1.91487 31.2966C.660299 33.482 0 35.9593 0 38.4808c0 2.5215.660299 4.9988 1.91487 7.1843z" fill="#00DC82"/></mask><g mask="url(#a)"><path d="M1.91487 45.6651L13.497 65.8046v-.0247c1.2621 2.1807 3.0726 3.9914 5.2508 5.2516 2.1782 1.2601 4.6479 1.9257 7.1627 1.9302h23.179c2.5149-.004 4.9848-.6694 7.1631-1.9296s3.9887-3.0712 5.2505-5.2522l11.582-20.1148C74.3397 43.4796 75 41.0023 75 38.4808c0-2.5215-.6603-4.9988-1.9149-7.1842l-11.582-20.1148c-1.2631-2.18321-3.0758-3.99561-5.2569-5.25595C54.0651 4.6655 51.5922 4.00141 49.0747 4H25.9105c-2.5148.0045-4.9845.67002-7.1627 1.93019-2.1782 1.26016-3.9887 3.07091-5.2508 5.25161L1.91487 31.2966C.660299 33.482 0 35.9593 0 38.4808c0 2.5215.660299 4.9988 1.91487 7.1843z" fill="#00DC82"/><path opacity=".3" d="M-8.08513 45.6668L3.49695 65.8063v-.0247c1.26216 2.1807 3.07265 3.9914 5.25083 5.2516 2.17822 1.2601 4.64792 1.9257 7.16272 1.9302h23.179c2.5149-.004 4.9848-.6694 7.1631-1.9296s3.9887-3.0712 5.2505-5.2522l11.582-20.1148C64.3397 43.4813 65 41.004 65 38.4825c0-2.5215-.6603-4.9988-1.9149-7.1842l-11.582-20.1148c-1.2631-2.1832-3.0758-3.9956-5.2569-5.25594-2.1811-1.26035-4.654-1.92444-7.1715-1.92585H15.9105c-2.5148.00449-4.9845.67002-7.16272 1.93019-2.17818 1.26016-3.98867 3.07091-5.25083 5.2516L-8.08513 31.2983C-9.3397 33.4837-10 35.961-10 38.4825c0 2.5215.6603 4.9988 1.91487 7.1843z" fill="#fff"/></g><path d="M34.1327 23.3796c0 .369.041.6971.164 1.0661.123.451.246.861.369 1.312.164.656-.328 1.271-.9841 1.271h-6.4371c-1.23 0-2.255.984-2.255 2.2551v6.3961c0 .656-.6151 1.1481-1.2301.9841-.451-.0821-.861-.2051-1.312-.3691-.574-.205-1.271-.246-1.968-.041-1.1891.287-2.0911 1.2301-2.3781 2.4191-.533 2.2551 1.107 4.2231 3.2801 4.2231.369 0 .738-.041 1.066-.164.451-.123.861-.246 1.312-.369.656-.164 1.2711.328 1.2711.984v6.3962c0 1.23.984 2.255 2.255 2.255h6.3961c.6561 0 1.1481.615.9841 1.23-.082.4511-.205.8611-.369 1.3121-.205.574-.246 1.271-.041 1.968.287 1.189 1.23 2.0911 2.419 2.3781 2.2551.574 4.2231-1.107 4.2231-3.2801 0-.369-.041-.697-.164-1.066-.123-.451-.246-.861-.369-1.3121-.164-.656.328-1.271.984-1.271h6.3962c1.23 0 2.255-.984 2.255-2.255v-6.3142c0-.656-.615-1.148-1.271-.984-.41.082-.779.205-1.1481.328-.328.123-.697.164-1.066.164-2.132 0-3.8131-2.009-3.28-4.2231.287-1.189 1.189-2.0911 2.378-2.4191.697-.164 1.353-.123 1.968.041.3691.123.7791.246 1.1481.3281.656.164 1.23-.3281 1.23-.9841v-6.3961c0-1.2301-.984-2.2551-2.255-2.2551h-6.3552c-.656 0-1.148-.615-.984-1.23.082-.451.205-.861.369-1.312.205-.5741.246-1.2711.041-1.9681-.287-1.189-1.23-2.091-2.4191-2.378-2.214-.5331-4.223 1.148-4.223 3.28z" fill="#B9FFE2"/></svg>

<svg width="75" height="75" viewBox="0 0 75 75" fill="none" xmlns="http://www.w3.org/2000/svg">
<mask id="mask0" mask-type="alpha" maskUnits="userSpaceOnUse" x="0" y="4" width="75" height="69">
<path d="M1.91487 45.6651L13.497 65.8046V65.7799C14.7591 67.9606 16.5696 69.7713 18.7478 71.0315C20.926 72.2916 23.3957 72.9572 25.9105 72.9617H49.0895C51.6044 72.9577 54.0743 72.2923 56.2526 71.0321C58.4309 69.7719 60.2413 67.9609 61.5031 65.7799L73.0851 45.6651C74.3397 43.4796 75 41.0023 75 38.4808C75 35.9593 74.3397 33.482 73.0851 31.2966L61.5031 11.1818C60.24 8.99859 58.4273 7.18619 56.2462 5.92585C54.0651 4.6655 51.5922 4.00141 49.0747 4H25.9105C23.3957 4.0045 20.926 4.67002 18.7478 5.93019C16.5696 7.19035 14.7591 9.0011 13.497 11.1818L1.91487 31.2966C0.660299 33.482 0 35.9593 0 38.4808C0 41.0023 0.660299 43.4796 1.91487 45.6651Z" fill="#00DC82"/>
</mask>
<g mask="url(#mask0)">
<path d="M1.91487 45.6651L13.497 65.8046V65.7799C14.7591 67.9606 16.5696 69.7713 18.7478 71.0315C20.926 72.2916 23.3957 72.9572 25.9105 72.9617H49.0895C51.6044 72.9577 54.0743 72.2923 56.2526 71.0321C58.4309 69.7719 60.2413 67.9609 61.5031 65.7799L73.0851 45.6651C74.3397 43.4796 75 41.0023 75 38.4808C75 35.9593 74.3397 33.482 73.0851 31.2966L61.5031 11.1818C60.24 8.99859 58.4273 7.18619 56.2462 5.92585C54.0651 4.6655 51.5922 4.00141 49.0747 4H25.9105C23.3957 4.0045 20.926 4.67002 18.7478 5.93019C16.5696 7.19035 14.7591 9.0011 13.497 11.1818L1.91487 31.2966C0.660299 33.482 0 35.9593 0 38.4808C0 41.0023 0.660299 43.4796 1.91487 45.6651Z" fill="#00DC82"/>
<path opacity="0.3" d="M-8.08513 45.6668L3.49695 65.8063V65.7816C4.75911 67.9623 6.5696 69.773 8.74778 71.0332C10.926 72.2933 13.3957 72.9589 15.9105 72.9634H39.0895C41.6044 72.9594 44.0743 72.294 46.2526 71.0338C48.4309 69.7736 50.2413 67.9626 51.5031 65.7816L63.0851 45.6668C64.3397 43.4813 65 41.004 65 38.4825C65 35.961 64.3397 33.4837 63.0851 31.2983L51.5031 11.1835C50.24 9.0003 48.4273 7.1879 46.2462 5.92756C44.0651 4.66721 41.5922 4.00312 39.0747 4.00171H15.9105C13.3957 4.0062 10.926 4.67173 8.74778 5.9319C6.5696 7.19206 4.75911 9.00281 3.49695 11.1835L-8.08513 31.2983C-9.3397 33.4837 -10 35.961 -10 38.4825C-10 41.004 -9.3397 43.4813 -8.08513 45.6668Z" fill="white"/>
</g>
<path d="M34.1327 23.3796C34.1327 23.7486 34.1737 24.0767 34.2967 24.4457C34.4197 24.8967 34.5427 25.3067 34.6657 25.7577C34.8297 26.4137 34.3377 27.0287 33.6816 27.0287H27.2445C26.0145 27.0287 24.9895 28.0127 24.9895 29.2838V35.6799C24.9895 36.3359 24.3744 36.828 23.7594 36.664C23.3084 36.5819 22.8984 36.4589 22.4474 36.2949C21.8734 36.0899 21.1764 36.0489 20.4794 36.2539C19.2903 36.5409 18.3883 37.484 18.1013 38.673C17.5683 40.9281 19.2083 42.8961 21.3814 42.8961C21.7504 42.8961 22.1194 42.8551 22.4474 42.7321C22.8984 42.6091 23.3084 42.4861 23.7594 42.3631C24.4154 42.1991 25.0305 42.6911 25.0305 43.3471V49.7433C25.0305 50.9733 26.0145 51.9983 27.2855 51.9983H33.6816C34.3377 51.9983 34.8297 52.6133 34.6657 53.2283C34.5837 53.6794 34.4607 54.0894 34.2967 54.5404C34.0917 55.1144 34.0507 55.8114 34.2557 56.5084C34.5427 57.6974 35.4857 58.5995 36.6747 58.8865C38.9298 59.4605 40.8978 57.7795 40.8978 55.6064C40.8978 55.2374 40.8568 54.9094 40.7338 54.5404C40.6108 54.0894 40.4878 53.6794 40.3648 53.2283C40.2008 52.5723 40.6928 51.9573 41.3488 51.9573H47.745C48.975 51.9573 50 50.9733 50 49.7023V43.3881C50 42.7321 49.385 42.2401 48.729 42.4041C48.319 42.4861 47.95 42.6091 47.5809 42.7321C47.2529 42.8551 46.8839 42.8961 46.5149 42.8961C44.3829 42.8961 42.7018 40.8871 43.2349 38.673C43.5219 37.484 44.4239 36.5819 45.6129 36.2539C46.3099 36.0899 46.9659 36.1309 47.5809 36.2949C47.95 36.4179 48.36 36.5409 48.729 36.623C49.385 36.787 49.959 36.2949 49.959 35.6389V29.2428C49.959 28.0127 48.975 26.9877 47.704 26.9877H41.3488C40.6928 26.9877 40.2008 26.3727 40.3648 25.7577C40.4468 25.3067 40.5698 24.8967 40.7338 24.4457C40.9388 23.8716 40.9798 23.1746 40.7748 22.4776C40.4878 21.2886 39.5448 20.3866 38.3557 20.0996C36.1417 19.5665 34.1327 21.2476 34.1327 23.3796Z" fill="#A8FFE8"/>
</svg>
